site/static/docs/images/icons/headless-recorder.svg

<svg fill="none" height="26" viewBox="0 0 26 26" width="26" xmlns="http://www.w3.org/2000/svg"><g fill="#0075ff"><circle cx="13" cy="13" opacity=".15" r="13"/><path clip-rule="evenodd" d="m21 8.75c0-.2702-.1453-.51952-.3805-.65265-.2351-.13313-.5237-.12949-.7554.00953l-3.8641 2.31852v-.6754c0-.9665-.7835-1.75-1.75-1.75h-7.5c-.9665 0-1.75.7835-1.75 1.75v6.5c0 .9665.7835 1.75 1.75 1.75h7.5c.9665 0 1.75-.7835 1.75-1.75v-.6754l3.8641 2.3185c.2317.139.5203.1427.7554.0095.2352-.1331.3805-.3824.3805-.6526zm-5 5.0754 3.5 2.1v-5.8508l-3.5 2.1zm-1.5-2.0754v-2c0-.13807-.1119-.25-.25-.25h-7.5c-.13807 0-.25.11193-.25.25v6.5c0 .1381.11193.25.25.25h7.5c.1381 0 .25-.1119.25-.25v-2z" fill-rule="evenodd"/></g></svg>

<svg width="26" height="26" viewBox="0 0 26 26" fill="none" xmlns="http://www.w3.org/2000/svg">
<circle opacity="0.15" cx="13" cy="13" r="13" fill="#0075ff"/>
<path fill-rule="evenodd" clip-rule="evenodd" d="M21 8.75C21 8.4798 20.8547 8.23048 20.6195 8.09735C20.3844 7.96422 20.0958 7.96786 19.8641 8.10688L16 10.4254V9.75C16 8.7835 15.2165 8 14.25 8H6.75C5.7835 8 5 8.7835 5 9.75V16.25C5 17.2165 5.7835 18 6.75 18H14.25C15.2165 18 16 17.2165 16 16.25V15.5746L19.8641 17.8931C20.0958 18.0321 20.3844 18.0358 20.6195 17.9026C20.8547 17.7695 21 17.5202 21 17.25V8.75ZM16 13.8254L19.5 15.9254V10.0746L16 12.1746V13.8254ZM14.5 11.75V9.75C14.5 9.61193 14.3881 9.5 14.25 9.5H6.75C6.61193 9.5 6.5 9.61193 6.5 9.75V16.25C6.5 16.3881 6.61193 16.5 6.75 16.5H14.25C14.3881 16.5 14.5 16.3881 14.5 16.25V14.25V11.75Z" fill="#0075ff"/>
</svg>
